X:1
T:Somebody Did a Golden Deed
T:Winfield Scott Weeden
T:Somebody Did a Golden Deed
T:Public Domain
T:Public Domain
C:Winfield Scott Weeden
Z:Public Domain
%%score ( 1 2 ) ( 3 4 )
L:1/8
M:9/8
K:D
V:1 treble 
V:2 treble 
V:3 bass 
V:4 bass 
V:1
 [DF][DF][DF] | [DF]3 [DF]3 (FE)D | [CA]6 [CG][CG][CG] | [CG]3 [CG]3 (GF)[CE] | %4
w: 1.~Some- bo- dy|did a gold- * en|ing him- self a|friend in need; * Some-|
w: 2.~Some- bo- dy|tho’t ’tis sweet * to|ing- ly said, “I’m|glad to give”; * Some-|
w: 3.~Some- bo- dy|made a lov- * ing|ful- ly tried a|load to lift; * Some-|
w: 4.~Some- bo- dy|i- dled all * the|less- ly crushed life’s|fair- est flow’rs, * Some-|
w: 5.~Some- bo- dy|filled the days * with|stant- ly chased a-|way the night; * Some-|
 [DF]6 [FA][FA][FA] | [FA]3 [FA]3 (AB)F | [FA]6 [GB][GB][GB] | [^GB]3 [GB]3 (Bc)[Gd] | [Gc]6 z3 || %9
w: dy sang a cheer-|ful song, Bright- * ’ning|the whole day long.|||
w: dy fought a val-|iant fight, Brave- * ly|to shield the right.|||
w: dy told the love|of Christ, Told * how|was sac- ri- ficed.|||
w: dy made life loss,|not gain, Thought- * less-|to live in vain.|||
w: dy’s work bore joy|and peace, Sure- * ly|will ne- ver cease.|||
"^Refrain" [Fd]3 [FA]3 [FA][EG][DF] | [CA]6- [CA]3 | [DA]3 [DA]3 [DF]D[CE] | [A,D]6 |] %13
w: ||||
w: ||||
w: ||||
w: ||||
w: ||||
V:2
 x3 | x6 D2 D | x9 | x6 C2 x | x9 | x6 F2 F | x9 | x6 ^G2 x | x9 || x9 | x9 | x7 D x | x6 |] %13
w: |deed, Prov-||bo-||the sky||||||||
w: |live, Will-||bo-||he lived||||||||
w: |gift, Cheer-||bo-||His will||||||||
w: |hours, Care-||bo-||ly seemed||||||||
w: |light, Con-||bo-||his life||||||||
V:3
 [D,A,][D,A,][D,A,] | [D,A,]3 [D,A,]3 (A,G,)[D,F,] | [A,,E,]6 [A,,A,][A,,A,][A,,A,] | %3
w: ~ ~ ~|~ ~ ~ * ~|~ ~ ~ ~|
 [A,,A,]3 [A,,A,]3 [A,,A,]2 [A,,A,] | [D,A,]6 [D,D][D,D][D,D] | [D,D]3 [D,D]3 [D,D]2 [D,A,] | %6
w: ~ ~ ~ ~|~ ~ ~ ~|~ ~ ~ ~|
 [D,D]6 [G,D][G,D][G,D] | [E,D]3 [E,D]3 [E,D]2 [E,E] | [A,E]6 z3 || %9
w: ~ ~ ~ ~|~ ~ ~ ~|Was|
 [D,D]3 [D,D]3 [D,D][D,D][D,A,] | [A,,A,]6- [A,,A,]3 | [D,F,]3 [D,F,]3 [A,,A,][A,,F,][A,,G,] | %12
w: that some- bo- dy you?|Was *|that some- bo- dy you?|
 [D,F,]6 |] %13
w: |
V:4
 x3 | x6 D,2 x | x9 | x9 | x9 | x9 | x9 | x9 | x9 || x9 | x9 | x9 | x6 |] %13
w: |~||||||||||||

